X:843
T:The Highlander's kneebuckle
T:Pat Ward's jig
R:Slide
B:Ceol Rince 2 n58
S:Henrik Norbeck
Z:Transcription:Henrik Norbeck(?), chords:Mike Long
M:12/8
L:1/8
K:D
"D"FED A2D "G"B2D "D"A2D|"D"F2A A2F "A"E3 E2G|\
"D"FED A2D "G"B2D "D"A2A|"G"Bcd e2c [1 "A"d2B A2G:|[2 "G"d3 d2B|]
"D"A2d f2d "A"e2d "D"f2d|"D"A2d f2d "A"efe d2B|\
"D"A2d f2d "A"e2d e2f|"G"gfe f2d "A"B3 A2F|
"D"A2d f2d "A"e2d "D"f2d|"D"A2d f2d "A"e2d e2f|\
"G"gfe f2d e2d B2A|"A"Bcd e2c d2B A2G|]
